X:500
T: ICH WAR WOHL RECHT EIN SPRINGINSFELD
N: F0951
O: Europa, Mitteleuropa, Deutschland
R: Liebes - Lied
M: 6/8
L: 1/8
K: Eb
E | D2CB,CD | EDCB,2
B, | B,A,F,A,G,E, | B,2G,F,2
E, | EDCB,CD | EDCB,2
B, | CFEDCB, | E3B,z

@@@ Tune index: 5931
